X: 1145
T: An Buachaill Dreoite
R: hornpipe
M: 4/4
K: Gmajor
|:E|DGGB d2GB|d2GF GBAF|DGGB dBGB|dBcA =F3E|
DGGB d2GF|DGGF GABd|g2gf gbag|fdcA G3:|
|:A|B2BG cBcA|d2GF G2GA|B2BG cBcA|d2DE FGAG|
B2BG cBcA|d^cde f2 d/e/f|g2gf gbag|fdcA G3:|

